X:1
T:Title
%%score { 1 | 2 }
L:1/8
M:6/8
K:G
V:1 treble nm="Grand Piano"
V:2 bass 
V:1
 z6[Q:1/4=100] | [DB]2 [DB] [EG]2 [^DA] | [DB]2 [DB] [EG]2 [^DA] | [DB]2 [DB] [EG]2 [CE] | %4
 [B,D]3 z2 [Dd] | [Fd]2 [Fc] [F^G]2 [FA] | [Ec]2 [DB] [DF]2 [DG] | [^CA]2 [CB] [CA]2 [CE] | %8
 [CA]3 z2 D | [DB]2 [DB] [EG]2 [^DA] | [DB]2 [DB] [EG]2 [^DA] | [DB]2 [DB] [EG]2 [CE] | %12
 [B,D]3 z2 [Dd] | [Fd]2 [Fd] [ce]2 [ce] |[M:7/8] [Bd]2 [GB] [G,EG]3 [^DA] |[M:3/4] B2 D A2 B | %16
 [B,G]6 | d2 e d2 B | B2 c B2 G | [EG]2 [EA] [EG]2 [G,CE] | [G,B,D]6 | E2 F G2 A | B2 c d2 [Ge] | %23
 [Gd]2 [G^c] [F=c]2 [CFA] |[M:5/8] [B,DG]-[B,DG]- [B,DG]3 |] %25
V:2
 z3 z2 D | G,,B,,D, G,E,C, | G,,B,,D, G,E,C, | G,,B,,D, G,E,C, | G,,B,,D, G,D,B,, | D,F,A, CA,F, | %6
 G,,D,G, B,G,D, | A,,E,G, A,G,E, | D,F,A, CA,D, | G,,B,,D, G,E,C, | G,,B,,D, G,E,C, | %11
 G,,B,,D, G,E,C, | G,,B,,D, G,D,B,, | D,F,A, CA,F, |[M:7/8] G,,D,G, C,3 [C,G,] | %15
[M:3/4] [D,G,D]2 z [D,F,C]2 C | G,D, B,, .G,,3 | [G,B,G]2 [G,CG] [G,B,G]2 [G,DG] | %18
 [G,DG]2 [G,EG] [G,DG]2[K:bass] [G,B,D] | [C,C]2 [C,C] [C,C]2 C, | G,,6 | E,2 F, G,2 A, | %22
 B,2 C D2 [C,C] | [D,B,]2 [D,_B,] [D,A,]2 D, |[M:5/8] G,,-G,,- G,,3 |] %25

